images/Humanity/status/16/dialog-error.svg

<?xml version="1.0" encoding="UTF-8" standalone="no"?>
<!-- Created with Inkscape (http://www.inkscape.org/) -->
<svg id="svg3251" xmlns="http://www.w3.org/2000/svg" height="16" width="16" version="1.0" xmlns:xlink="http://www.w3.org/1999/xlink">
 <defs id="defs3253">
  <linearGradient id="linearGradient2406" y2="5.4676" gradientUnits="userSpaceOnUse" x2="63.397" gradientTransform="matrix(.74324 0 0 .74322 -38.23 10.609)" y1="-12.489" x1="63.397">
   <stop id="stop4875" style="stop-color:#fff" offset="0"/>
   <stop id="stop4877" style="stop-color:#fff;stop-opacity:0" offset="1"/>
  </linearGradient>
  <linearGradient id="linearGradient2411" y2="3.0816" gradientUnits="userSpaceOnUse" x2="18.379" gradientTransform="matrix(.36857 0 0 .36857 -.84577 -.84577)" y1="44.98" x1="18.379">
   <stop id="stop2492" style="stop-color:#791235" offset="0"/>
   <stop id="stop2494" style="stop-color:#dd3b27" offset="1"/>
  </linearGradient>
  <radialGradient id="radialGradient2409" gradientUnits="userSpaceOnUse" cy="3.99" cx="23.896" gradientTransform="matrix(0 .87966 -1.1611 0 12.633 -21.084)" r="20.397">
   <stop id="stop3244" style="stop-color:#f8b17e" offset="0"/>
   <stop id="stop3246" style="stop-color:#e35d4f" offset=".26238"/>
   <stop id="stop3248" style="stop-color:#c6262e" offset=".66094"/>
   <stop id="stop3250" style="stop-color:#690b54" offset="1"/>
  </radialGradient>
 </defs>
 <g id="layer1">
  <g id="g3275">
   <path id="path2555" style="stroke-linejoin:round;stroke:url(#linearGradient2411);stroke-linecap:round;stroke-width:1.0037;fill:url(#radialGradient2409)" d="m8 0.50183c-4.1372 0-7.4982 3.361-7.4982 7.4982 0.00003 4.137 3.361 7.498 7.4982 7.498 4.137 0 7.498-3.361 7.498-7.498 0-4.1372-3.361-7.4982-7.498-7.4982z"/>
   <path id="path2463" style="opacity:.4;stroke:url(#linearGradient2406);fill:none" d="m14.5 7.9998c0 3.5902-2.91 6.5002-6.4999 6.5002s-6.5001-2.91-6.5001-6.5002c0-3.5898 2.9102-6.4998 6.5001-6.4998s6.4999 2.91 6.4999 6.4998z"/>
  </g>
  <path id="path3360" style="opacity:.2" d="m3 8h10v-2h-10v2z"/>
  <path id="path3249" style="fill:#fff" d="m3 9h10v-2h-10v2z"/>
 </g>
</svg>

<?xml version="1.0" encoding="UTF-8" standalone="no"?>
<!-- Created with Inkscape (http://www.inkscape.org/) -->

<svg
   xmlns:dc="http://purl.org/dc/elements/1.1/"
   xmlns:cc="http://creativecommons.org/ns#"
   xmlns:rdf="http://www.w3.org/1999/02/22-rdf-syntax-ns#"
   xmlns:svg="http://www.w3.org/2000/svg"
   xmlns="http://www.w3.org/2000/svg"
   xmlns:sodipodi="http://sodipodi.sourceforge.net/DTD/sodipodi-0.dtd"
   xmlns:inkscape="http://www.inkscape.org/namespaces/inkscape"
   id="svg3251"
   height="128"
   width="128"
   version="1.0"
   sodipodi:docname="dialog-error.svg"
   inkscape:version="0.92.5 (2060ec1f9f, 2020-04-08)">
  <metadata
     id="metadata23">
    <rdf:RDF>
      <cc:Work
         rdf:about="">
        <dc:format>image/svg+xml</dc:format>
        <dc:type
           rdf:resource="http://purl.org/dc/dcmitype/StillImage" />
        <dc:title></dc:title>
      </cc:Work>
    </rdf:RDF>
  </metadata>
  <sodipodi:namedview
     pagecolor="#ffffff"
     bordercolor="#666666"
     borderopacity="1"
     objecttolerance="10"
     gridtolerance="10"
     guidetolerance="10"
     inkscape:pageopacity="0"
     inkscape:pageshadow="2"
     inkscape:window-width="4240"
     inkscape:window-height="2338"
     id="namedview21"
     showgrid="false"
     inkscape:zoom="7.375"
     inkscape:cx="58.072125"
     inkscape:cy="58.149818"
     inkscape:window-x="144"
     inkscape:window-y="54"
     inkscape:window-maximized="1"
     inkscape:current-layer="svg3251" />
  <defs
     id="defs3253">
    <linearGradient
       id="linearGradient2406"
       y2="5.4675999"
       gradientUnits="userSpaceOnUse"
       x2="63.396999"
       gradientTransform="matrix(0.74324,0,0,0.74322,-38.23,10.609)"
       y1="-12.489"
       x1="63.396999">
      <stop
         id="stop4875"
         style="stop-color:#fff"
         offset="0" />
      <stop
         id="stop4877"
         style="stop-color:#fff;stop-opacity:0"
         offset="1" />
    </linearGradient>
    <linearGradient
       id="linearGradient2411"
       y2="3.0816"
       gradientUnits="userSpaceOnUse"
       x2="18.379"
       gradientTransform="matrix(0.36857,0,0,0.36857,-0.84577,-0.84577)"
       y1="44.98"
       x1="18.379">
      <stop
         id="stop2492"
         style="stop-color:#791235"
         offset="0" />
      <stop
         id="stop2494"
         style="stop-color:#dd3b27"
         offset="1" />
    </linearGradient>
    <radialGradient
       id="radialGradient2409"
       gradientUnits="userSpaceOnUse"
       cy="3.99"
       cx="23.896"
       gradientTransform="matrix(0,0.87966,-1.1611,0,12.633,-21.084)"
       r="20.396999">
      <stop
         id="stop3244"
         style="stop-color:#f8b17e"
         offset="0" />
      <stop
         id="stop3246"
         style="stop-color:#e35d4f"
         offset=".26238" />
      <stop
         id="stop3248"
         style="stop-color:#c6262e"
         offset=".66094" />
      <stop
         id="stop3250"
         style="stop-color:#690b54"
         offset="1" />
    </radialGradient>
  </defs>
  <g
     id="g836"
     transform="matrix(7.9915691,0,0,7.9915691,3.4964113e-4,-894.92001)">
    <g
       transform="translate(0,112)"
       id="layer1">
      <g
         id="g3275">
        <path
           inkscape:connector-curvature="0"
           d="m 8,0.50183 c -4.1372,0 -7.4982,3.361 -7.4982,7.4982 3e-5,4.137 3.361,7.498 7.4982,7.498 4.137,0 7.498,-3.361 7.498,-7.498 0,-4.1372 -3.361,-7.4982 -7.498,-7.4982 z"
           style="fill:url(#radialGradient2409);stroke:url(#linearGradient2411);stroke-width:1.00370002;stroke-linecap:round;stroke-linejoin:round"
           id="path2555" />
        <path
           inkscape:connector-curvature="0"
           d="M 14.5,7.9998 C 14.5,11.59 11.59,14.5 8.0001,14.5 4.4102,14.5 1.5,11.59 1.5,7.9998 1.5,4.41 4.4102,1.5 8.0001,1.5 11.59,1.5 14.5,4.41 14.5,7.9998 Z"
           style="opacity:0.4;fill:none;stroke:url(#linearGradient2406)"
           id="path2463" />
      </g>
      <path
         inkscape:connector-curvature="0"
         d="M 3,8 H 13 V 6 H 3 Z"
         style="opacity:0.2"
         id="path3360" />
      <path
         inkscape:connector-curvature="0"
         d="M 3,9 H 13 V 7 H 3 Z"
         style="fill:#ffffff"
         id="path3249" />
    </g>
  </g>
</svg>
